build/Karasa-Jaga/scalable/emblems/emblem-system-symbolic.svg

<svg height="16" width="16" xmlns="http://www.w3.org/2000/svg" xmlns:xlink="http://www.w3.org/1999/xlink"><linearGradient id="a" gradientTransform="matrix(1 0 0 -1 0 16)" gradientUnits="userSpaceOnUse" x1="8.21288" x2="8.21288" y1=".958855" y2="14.985587"><stop offset="0" stop-color="#bebebe" stop-opacity=".698"/><stop offset="1" stop-color="#bebebe"/></linearGradient><path d="m6.75 15v-2.1875c-.4487872-.117378-.8597203-.301606-1.25-.53125l-1.5625 1.5625-1.78125-1.78125 1.5625-1.5625c-.2296441-.39028-.4138722-.8012128-.53125-1.25h-2.1875v-2.5h2.1875c.1173778-.4487872.3016059-.85972.53125-1.25l-1.5625-1.5625 1.78125-1.78125 1.5625 1.5625c.3902797-.229644.8012128-.413872 1.25-.53125v-2.1875h2.5v2.1875c.4487872.117378.85972.301606 1.25.53125l1.5625-1.5625 1.78125 1.78125-1.5625 1.5625c.229644.39028.413872.8012128.53125 1.25h2.1875v2.5h-2.1875c-.117378.4487872-.301606.85972-.53125 1.25l1.5625 1.5625-1.78125 1.78125-1.5625-1.5625c-.39028.229644-.8012128.413872-1.25.53125v2.1875zm1.25-5c1.1045695 0 2-.8954305 2-2s-.8954305-2-2-2-2 .8954305-2 2 .8954305 2 2 2z" fill="url(#a)"/><path d="m6.75 1v2.1875c-.4487872.117378-.8597203.301606-1.25.53125l-1.5625-1.5625-1.78125 1.78125 1.5625 1.5625c-.2296441.39028-.4138722.8012128-.53125 1.25h-2.1875v2.5h2.1875c.1173778.4487872.3016059.85972.53125 1.25l-1.5625 1.5625 1.78125 1.78125 1.5625-1.5625c.3902797.229644.8012128.413872 1.25.53125v2.1875h2.5v-2.1875c.4487872-.117378.85972-.301606 1.25-.53125l1.5625 1.5625 1.78125-1.78125-1.5625-1.5625c.229644-.39028.413872-.8012128.53125-1.25h2.1875v-2.5h-2.1875c-.117378-.4487872-.301606-.85972-.53125-1.25l1.5625-1.5625-1.78125-1.78125-1.5625 1.5625c-.39028-.229644-.8012128-.413872-1.25-.53125v-2.1875zm.875 1h.75v2.03125c.827336.077246 1.5840203.4025641 2.1875.90625l1.40625-1.4375.53125.53125-1.4375 1.40625c.503686.6034797.829004 1.3601641.90625 2.1875h2.03125v.75h-2.03125c-.07725.827336-.402564 1.5840203-.90625 2.1875l1.4375 1.40625-.53125.53125-1.40625-1.4375c-.6034797.503686-1.360164.829004-2.1875.90625v2.03125h-.75v-2.03125c-.827336-.077246-1.5840203-.402564-2.1875-.90625l-1.40625 1.4375-.53125-.53125 1.4375-1.40625c-.5036859-.6034797-.8290038-1.360164-.90625-2.1875h-2.03125v-.75h2.03125c.0772462-.8273359.4025641-1.5840203.90625-2.1875l-1.4375-1.40625.53125-.53125 1.40625 1.4375c.6034797-.5036859 1.360164-.8290038 2.1875-.90625z" fill="#bebebe"/></svg>

<?xml version="1.0" encoding="UTF-8" standalone="no"?>
<!-- Created with Inkscape (http://www.inkscape.org/) -->

<svg
   xmlns:dc="http://purl.org/dc/elements/1.1/"
   xmlns:cc="http://creativecommons.org/ns#"
   xmlns:rdf="http://www.w3.org/1999/02/22-rdf-syntax-ns#"
   xmlns:svg="http://www.w3.org/2000/svg"
   xmlns="http://www.w3.org/2000/svg"
   xmlns:xlink="http://www.w3.org/1999/xlink"
   xmlns:inkscape="http://www.inkscape.org/namespaces/inkscape"
   version="1.1"
   width="16"
   height="16"
   id="svg7384">
  <title
     id="title9167">Gnome Symbolic Icon Theme</title>
  <defs
     id="defs11">
    <linearGradient
       x1="8.2128801"
       y1="0.95885509"
       x2="8.2128801"
       y2="14.985587"
       id="linearGradient3899"
       xlink:href="#linearGradient3798-3"
       gradientUnits="userSpaceOnUse"
       gradientTransform="matrix(1,0,0,-1,0,16)" />
    <linearGradient
       id="linearGradient3798-3">
      <stop
         id="stop3800-9"
         style="stop-color:#bebebe;stop-opacity:0.69800001"
         offset="0" />
      <stop
         id="stop3802-0"
         style="stop-color:#bebebe;stop-opacity:1"
         offset="1" />
    </linearGradient>
    <radialGradient
       cx="8"
       cy="13.70627"
       r="5.4887881"
       fx="8"
       fy="13.70627"
       id="radialGradient3922"
       xlink:href="#linearGradient3798-3"
       gradientUnits="userSpaceOnUse"
       gradientTransform="matrix(2.0028749,0,0,2.103321,-27.472015,-17.454038)" />
  </defs>
  <metadata
     id="metadata90">
    <rdf:RDF>
      <cc:Work
         rdf:about="">
        <dc:format>image/svg+xml</dc:format>
        <dc:type
           rdf:resource="http://purl.org/dc/dcmitype/StillImage" />
        <dc:title>Gnome Symbolic Icon Theme</dc:title>
      </cc:Work>
    </rdf:RDF>
  </metadata>
  <path
     d="m 6.75,15 0,-2.1875 C 6.3012128,12.695122 5.8902797,12.510894 5.5,12.28125 L 3.9375,13.84375 2.15625,12.0625 3.71875,10.5 C 3.4891059,10.10972 3.3048778,9.6987872 3.1875,9.25 L 1,9.25 l 0,-2.5 2.1875,0 C 3.3048778,6.3012128 3.4891059,5.89028 3.71875,5.5 L 2.15625,3.9375 3.9375,2.15625 5.5,3.71875 C 5.8902797,3.489106 6.3012128,3.304878 6.75,3.1875 L 6.75,1 l 2.5,0 0,2.1875 c 0.4487872,0.117378 0.85972,0.301606 1.25,0.53125 L 12.0625,2.15625 13.84375,3.9375 12.28125,5.5 c 0.229644,0.39028 0.413872,0.8012128 0.53125,1.25 l 2.1875,0 0,2.5 -2.1875,0 c -0.117378,0.4487872 -0.301606,0.85972 -0.53125,1.25 l 1.5625,1.5625 L 12.0625,13.84375 10.5,12.28125 C 10.10972,12.510894 9.6987872,12.695122 9.25,12.8125 L 9.25,15 6.75,15 z M 8,10 C 9.1045695,10 10,9.1045695 10,8 10,6.8954305 9.1045695,6 8,6 6.8954305,6 6,6.8954305 6,8 c 0,1.1045695 0.8954305,2 2,2 z"
     inkscape:connector-curvature="0"
     id="path3002"
     style="color:#bebebe;fill:url(#linearGradient3899);fill-opacity:1;fill-rule:nonzero;stroke:none;stroke-width:1;marker:none;visibility:visible;display:inline;overflow:visible;enable-background:accumulate" />
  <path
     d="m 6.75,1 0,2.1875 C 6.3012128,3.304878 5.8902797,3.489106 5.5,3.71875 L 3.9375,2.15625 2.15625,3.9375 3.71875,5.5 C 3.4891059,5.89028 3.3048778,6.3012128 3.1875,6.75 L 1,6.75 l 0,2.5 2.1875,0 c 0.1173778,0.4487872 0.3016059,0.85972 0.53125,1.25 L 2.15625,12.0625 3.9375,13.84375 5.5,12.28125 c 0.3902797,0.229644 0.8012128,0.413872 1.25,0.53125 l 0,2.1875 2.5,0 0,-2.1875 c 0.4487872,-0.117378 0.85972,-0.301606 1.25,-0.53125 l 1.5625,1.5625 1.78125,-1.78125 -1.5625,-1.5625 c 0.229644,-0.39028 0.413872,-0.8012128 0.53125,-1.25 l 2.1875,0 0,-2.5 -2.1875,0 C 12.695122,6.3012128 12.510894,5.89028 12.28125,5.5 L 13.84375,3.9375 12.0625,2.15625 10.5,3.71875 C 10.10972,3.489106 9.6987872,3.304878 9.25,3.1875 L 9.25,1 6.75,1 z m 0.875,1 0.75,0 0,2.03125 C 9.202336,4.108496 9.9590203,4.4338141 10.5625,4.9375 L 11.96875,3.5 12.5,4.03125 11.0625,5.4375 c 0.503686,0.6034797 0.829004,1.3601641 0.90625,2.1875 l 2.03125,0 0,0.75 -2.03125,0 C 11.8915,9.202336 11.566186,9.9590203 11.0625,10.5625 L 12.5,11.96875 11.96875,12.5 10.5625,11.0625 C 9.9590203,11.566186 9.202336,11.891504 8.375,11.96875 l 0,2.03125 -0.75,0 0,-2.03125 C 6.797664,11.891504 6.0409797,11.566186 5.4375,11.0625 L 4.03125,12.5 3.5,11.96875 4.9375,10.5625 C 4.4338141,9.9590203 4.1084962,9.202336 4.03125,8.375 L 2,8.375 l 0,-0.75 2.03125,0 C 4.1084962,6.7976641 4.4338141,6.0409797 4.9375,5.4375 L 3.5,4.03125 4.03125,3.5 5.4375,4.9375 C 6.0409797,4.4338141 6.797664,4.1084962 7.625,4.03125 L 7.625,2 z"
     inkscape:connector-curvature="0"
     id="path3002-1"
     style="color:#bebebe;fill:#bebebe;fill-opacity:1;fill-rule:nonzero;stroke:none;stroke-width:1;marker:none;visibility:visible;display:inline;overflow:visible;enable-background:accumulate" />
</svg>
